svg/fluentui-system-icons/ic_fluent_arrow_reply_48_regular.svg

<svg width="48" height="48" viewBox="0 0 48 48" fill="none" xmlns="http://www.w3.org/2000/svg">
<path d="M13.015 22.5005L20.0763 29.5614C20.5644 30.0496 20.5644 30.841 20.0763 31.3292C19.6207 31.7848 18.9008 31.8152 18.41 31.4203L18.3085 31.3292L9.11612 22.1368C8.66051 21.6812 8.63013 20.9614 9.02499 20.4705L9.11612 20.3691L18.3085 11.1767C18.7967 10.6885 19.5881 10.6885 20.0763 11.1767C20.5319 11.6323 20.5623 12.3521 20.1674 12.8429L20.0763 12.9444L13.019 20.0005H22C25.2537 20.0005 28.2795 20.7211 30.9036 22.0994L31.3146 22.3225C33.9968 23.8263 36.1742 26.0038 37.6781 28.6859C39.2016 31.4032 40 34.5756 40 38.0005C40 38.6909 39.4404 39.2505 38.75 39.2505C38.0596 39.2505 37.5 38.6909 37.5 38.0005C37.5 34.9964 36.8077 32.2454 35.4974 29.9086C34.2187 27.6278 32.3727 25.7819 30.092 24.5031C27.8849 23.2657 25.3086 22.5794 22.4983 22.5069L22 22.5005H13.015L20.0763 29.5614L13.015 22.5005Z" fill="#212121"/>
</svg>

<svg xmlns="http://www.w3.org/2000/svg" width="48" height="48"><path d="m13.015 22.5 7.061 7.061a1.25 1.25 0 0 1-1.666 1.86l-.102-.092-9.192-9.192a1.25 1.25 0 0 1-.091-1.666l.091-.102 9.192-9.192a1.25 1.25 0 0 1 1.86 1.666l-.092.101L13.02 20H22c3.254 0 6.28.721 8.904 2.1l.41.223a16.513 16.513 0 0 1 6.364 6.363C39.202 31.403 40 34.576 40 38a1.25 1.25 0 1 1-2.5 0c0-3.005-.692-5.756-2.003-8.092a14.012 14.012 0 0 0-5.405-5.406c-2.207-1.237-4.783-1.924-7.594-1.996L22 22.5h-8.985l7.061 7.061-7.061-7.06Z"/></svg>
